X: 14939
T: Gavotte Sicard
R: slide
M: 12/8
K: Bminor
|:fe<f g3/2f3/2 e3/2d3/2 B3/2c3/2|dc<d e3/2c3/2 A3B3:|
|:fe<f g3/2f3/2 e3/2d3/2 B3/2c3/2|dc<d e3/2f3/2 b3/2a3/2 f3/2e3/2|
fe<f g3/2f3/2 e3/2d3/2 B3/2c3/2|dc<d e3/2c3/2 A3B3:|

